assets/images/belfast-ruby-logo.svg

<?xml version="1.0" encoding="UTF-8" standalone="no"?>
<svg width="141px" height="111px" viewBox="0 0 141 111" version="1.1" xmlns="http://www.w3.org/2000/svg" xmlns:xlink="http://www.w3.org/1999/xlink" xmlns:sketch="http://www.bohemiancoding.com/sketch/ns">
    <title>ruby-shapre</title>
    <description>Created with Sketch (http://www.bohemiancoding.com/sketch)</description>
    <defs></defs>
    <g id="Page-1" stroke="none" stroke-width="1" fill="none" fill-rule="evenodd" sketch:type="MSPage">
        <g id="BR-logo" sketch:type="MSLayerGroup" transform="translate(0.000000, -1.000000)">
            <path d="M141,30.2632299 L120.136475,0 L20.8621797,0 L0,30.2632299 L70.4626644,111 L70.5373356,111 L141,30.2632299" id="Fill-1" fill="#6E1835" sketch:type="MSShapeGroup"></path>
            <path d="M141,30 L120.136475,0 L20.8621797,0 L0,30 L141,30" id="Fill-2" fill="#8D1E40" sketch:type="MSShapeGroup"></path>
            <path d="M71,0 L39.6967742,30 L21,0" id="Fill-3" fill="#AC224E" sketch:type="MSShapeGroup"></path>
            <path d="M71,0 L102.302464,30 L121,0" id="Fill-4" fill="#AC224E" sketch:type="MSShapeGroup"></path>
            <path d="M40,31 L70.9634746,112 L71.0378658,112 L102,31" id="Fill-5" fill="#A42249" sketch:type="MSShapeGroup"></path>
            <path d="M30.2671317,24 L25.3249272,24 C25.1455619,24 25,24.1382763 25,24.3075806 L25,36.6924194 C25,36.8610491 25.1455619,37 25.3249272,37 L30.2671317,37 C31.2839951,37 32.169094,36.6492502 32.8996627,35.9578685 C33.6295416,35.2678358 34,34.4273855 34,33.4628236 L34,32.9110673 C34,32.4233902 33.8854821,31.9424584 33.6619654,31.4864837 C33.4908784,31.1343849 33.2611528,30.8072433 32.9769278,30.5124786 C33.2480454,30.2588595 33.4736318,29.9425102 33.6502376,29.5721995 C33.8806531,29.089244 34,28.583355 34,28.0700462 L34,27.5182898 C34,26.5672184 33.627472,25.7335132 32.8948337,25.041457 C32.1601257,24.3507498 31.2764066,24 30.2671317,24 L30.2671317,24 Z M29.7114738,29 L27,29 L27,26 L29.7114738,26 C30.0648104,26 30.3611778,26.1215352 30.618499,26.3684435 C30.8745399,26.6127932 31,26.8968017 31,27.2307036 L31,27.7712154 C31,28.1121535 30.8758201,28.3955224 30.6236198,28.6379531 C30.3694991,28.8810235 30.0712114,29 29.7114738,29 L29.7114738,29 Z M27,32 L29.7114738,32 C30.0648104,32 30.3611778,32.1192856 30.618499,32.3661493 C30.8745399,32.6091856 31,32.8943228 31,33.2336806 L31,33.7739741 C31,34.1133319 30.8758201,34.3971933 30.6236198,34.6376781 C30.3694991,34.8807144 30.0712114,35 29.7114738,35 L27,35 L27,32 L27,32 Z" id="Fill-6" fill="#F2F1EE" sketch:type="MSShapeGroup"></path>
            <path d="M47.7283809,26.2205157 C48.0871665,26.2205157 48.3886845,26.1193379 48.6267249,25.9129352 C48.8695952,25.7045089 49,25.4266072 49,25.1109324 C49,24.7898615 48.8716651,24.5119597 48.6315547,24.3028589 C48.3969641,24.1032014 48.0926863,24 47.7283809,24 L40.324977,24 C40.1462741,24 40,24.1382763 40,24.3075806 L40,36.6924194 C40,36.8610491 40.1462741,37 40.324977,37 L47.7283809,37 C48.0850966,37 48.3866145,36.9001712 48.6232751,36.6978156 C48.8695952,36.4927619 49,36.2114876 49,35.8897421 C49,35.5679967 48.8716651,35.2894204 48.6315547,35.0830177 C48.3969641,34.8799875 48.0926863,34.7788097 47.7283809,34.7788097 L42.3431463,34.7788097 L42.3431463,31.606548 L45.0712971,31.606548 C45.4293928,31.606548 45.7288408,31.5033467 45.9620515,31.300991 C46.1966421,31.0939138 46.3215271,30.8166866 46.3215271,30.4956156 C46.3215271,30.1758937 46.1966421,29.8973175 45.9620515,29.6895657 C45.7288408,29.4872101 45.4293928,29.3840087 45.0712971,29.3840087 L42.3431463,29.3840087 L42.3431463,26.2205157 L47.7283809,26.2205157" id="Fill-7" fill="#F2F1EE" sketch:type="MSShapeGroup"></path>
            <path d="M62.7302561,34.7788097 L57.3428155,34.7788097 L57.3428155,25.204016 C57.3428155,24.8667566 57.2344732,24.5800861 57.0184788,24.3541223 C56.7969637,24.1220879 56.5036804,24 56.1710627,24 C55.8260236,24 55.52929,24.1180408 55.3160558,24.34333 C55.1042018,24.5632232 55,24.8525917 55,25.204016 L55,36.6924194 C55,36.8610491 55.1456065,37 55.3243368,37 L62.7302561,37 C63.0856464,37 63.3879006,36.9001712 63.6245975,36.6978156 C63.8702653,36.4927619 64,36.2114876 64,35.8897421 C64,35.5679967 63.8730256,35.2894204 63.6321883,35.0830177 C63.3968716,34.8799875 63.0946174,34.7788097 62.7302561,34.7788097" id="Fill-8" fill="#F2F1EE" sketch:type="MSShapeGroup"></path>
            <path d="M76.7306542,24 L69.3244114,24 C69.1442595,24 69,24.1382763 69,24.3075806 L69,35.4897525 C69,36.0907487 69.0835187,36.3936076 69.317509,36.6445286 C69.5356239,36.8779121 69.8310453,37 70.1706419,37 C70.5109288,37 70.8056599,36.8792611 71.0244651,36.6532974 C71.2363678,36.4280081 71.344735,36.1426867 71.344735,35.795984 L71.344735,29.9647694 L75.0768464,29.9647694 C75.4274868,29.9647694 75.7242887,29.8608935 75.9596595,29.6585379 C76.199862,29.4521351 76.3289363,29.1728843 76.3289363,28.8518134 C76.3289363,28.531417 76.2026229,28.2541898 75.9672521,28.0484616 C75.7346422,27.8440824 75.4343891,27.7415555 75.0768464,27.7415555 L71.344735,27.7415555 L71.344735,26.2205157 L76.7306542,26.2205157 C77.0902677,26.2205157 77.3925915,26.1193379 77.6286525,25.9129352 C77.8729964,25.7045089 78,25.4266072 78,25.1109324 C78,24.7898615 77.8750671,24.5119597 77.6341744,24.3028589 C77.3988036,24.1032014 77.0944091,24 76.7306542,24" id="Fill-9" fill="#F2F1EE" sketch:type="MSShapeGroup"></path>
            <path d="M88.9306839,35.5140352 L85.7255083,25.1237482 C85.6104436,24.7170134 85.4628004,24.4377627 85.2784196,24.2725056 C85.0794824,24.0924091 84.8167745,24 84.4993068,24 C84.1749076,24 83.9073475,24.0957817 83.7028651,24.2853214 C83.5164048,24.4546256 83.3701479,24.7298293 83.2530037,25.1257718 L80.0506007,35.4951487 C80.0339649,35.5558553 80.021488,35.615213 80.0124769,35.6732216 C80.0034658,35.7312302 80,35.8148705 80,35.9275152 C80,36.2175582 80.1115989,36.4698283 80.336183,36.6823017 C80.5607671,36.892077 80.8310998,37 81.1360906,37 C81.4313771,37 81.6802218,36.9224303 81.8826248,36.7693146 C82.073244,36.6209205 82.2181146,36.4017019 82.3200092,36.1076117 L82.8925601,34.304623 L86.1143715,34.304623 L86.6779113,36.1130078 C86.754159,36.3713485 86.8976433,36.585171 87.1048983,36.7484045 C87.3197782,36.9163597 87.5665434,37 87.8431146,37 C88.1543438,37 88.4295287,36.8954496 88.6561922,36.6829762 C88.8814695,36.4732009 89,36.2067659 89,35.9072796 C89,35.849271 88.9937616,35.7824936 88.9805915,35.7103201 C88.9681146,35.6367976 88.9514787,35.5659731 88.9306839,35.5140352 L88.9306839,35.5140352 Z M86,32 L84,32 L85.0069776,29 L86,32 L86,32 Z" id="Fill-10" fill="#F2F1EE" sketch:type="MSShapeGroup"></path>
            <path d="M100.5442,26.2805479 C100.611132,26.3311368 100.619413,26.3628392 100.623553,26.3763296 C100.723607,26.842422 100.856781,27.1365122 101.040328,27.3051419 C101.234915,27.4845639 101.499195,27.5749494 101.828337,27.5749494 C102.167139,27.5749494 102.45971,27.4555596 102.679138,27.2275723 C102.892356,27.003632 103,26.716287 103,26.3695844 C103,25.7517252 102.7371,25.1945727 102.217511,24.7183625 C101.699992,24.2421522 101.08587,24 100.390324,24 L96.2149812,24 C95.6112091,24 95.0840297,24.2070773 94.6513839,24.6178592 C94.219428,25.0286411 94,25.5250869 94,26.1011259 C94,26.3506979 94.0503718,26.5975717 94.1504255,26.8377004 C94.246339,27.0670368 94.3933144,27.30784 94.5754811,27.5398744 L100.54696,34.7788097 L96.6013954,34.7788097 C96.5827647,34.7788097 96.536533,34.7788097 96.4578701,34.7208011 C96.4109484,34.6857261 96.3826574,34.6506512 96.3764471,34.6196233 C96.2674231,34.1569034 96.1328682,33.8614642 95.9513916,33.6941836 C95.7574944,33.5167851 95.4945948,33.4263996 95.172353,33.4263996 C94.8328605,33.4263996 94.5402898,33.546464 94.3208618,33.7731023 C94.109024,33.996368 94,34.285062 94,34.6310901 C94,35.2422041 94.2642797,35.7973331 94.7831787,36.2782649 C95.3006977,36.7564987 95.90999,37 96.6013954,37 L100.774668,37 C101.386721,37 101.91666,36.7929227 102.347926,36.3828153 C102.781262,35.9733825 103,35.4742386 103,34.9002231 C103,34.6506512 102.950318,34.4031028 102.848884,34.1622996 C102.755041,33.9322887 102.608066,33.69216 102.424519,33.458102 L96.4558,26.2205157 L100.390324,26.2205157 C100.422756,26.2205157 100.471057,26.2272609 100.5442,26.2805479" id="Fill-11" fill="#F2F1EE" sketch:type="MSShapeGroup"></path>
            <path d="M116.674998,24 L108.326382,24 C108.146285,24 108,24.1382763 108,24.3075806 L108,26.3695844 C108,26.7081928 108.109024,26.9948633 108.319482,27.219478 C108.53615,27.452187 108.832171,27.5749494 109.173733,27.5749494 C109.512535,27.5749494 109.805796,27.4555596 110.023844,27.2275723 C110.235682,27.003632 110.342636,26.716287 110.342636,26.3695844 L110.342636,26.2205157 L111.327302,26.2205157 L111.327302,35.795984 C111.327302,36.1339179 111.435636,36.4199139 111.646094,36.6445286 C111.864832,36.8779121 112.160853,37 112.500345,37 C112.839147,37 113.134478,36.8792611 113.353906,36.6532974 C113.564364,36.4280081 113.673388,36.1426867 113.673388,35.795984 L113.673388,26.2205157 L114.655984,26.2205157 L114.655984,26.3695844 C114.655984,26.7081928 114.762938,26.9948633 114.974776,27.219478 C115.194204,27.452187 115.488845,27.5749494 115.826957,27.5749494 C116.167139,27.5749494 116.46178,27.4555596 116.679828,27.2275723 C116.893736,27.003632 117,26.716287 117,26.3695844 L117,24.3075806 C117,24.1382763 116.856475,24 116.674998,24" id="Fill-12" fill="#F2F1EE" sketch:type="MSShapeGroup"></path>
            <path d="M52.1150307,48 L46.3243865,48 C46.1435583,48 46,48.137609 46,48.3089456 L46,58.0542237 C46,60.1345475 46.1069785,60.4198838 46.3181748,60.6445102 C46.5348926,60.8792549 46.8316718,61 47.1712423,61 C47.5121933,61 47.8055215,60.8792549 48.0236196,60.6526048 C48.2361963,60.4300021 48.3452454,60.1419676 48.3452454,59.7959215 L48.3452454,55.6116646 L49.0340491,55.6116646 L52.757592,60.3679431 C52.870092,60.5554691 53.0205521,60.7079182 53.2048313,60.8165214 C53.3946319,60.9257991 53.605138,60.981787 53.8294479,60.981787 C54.152454,60.981787 54.4312883,60.8758821 54.6604294,60.6586758 C54.8847393,60.4428186 55,60.1797426 55,59.8728207 C55,59.7777086 54.9820552,59.675851 54.9440951,59.5679224 C54.9109663,59.4721357 54.8585123,59.3702781 54.7963957,59.2731424 L51.7423313,55.6116646 L52.1150307,55.6116646 C52.9087423,55.6116646 53.597546,55.3411685 54.1586656,54.8075965 C54.7170245,54.2720008 55,53.6237547 55,52.8776982 L55,50.716428 C55,49.975768 54.7135736,49.33022 54.1455521,48.8000208 C53.578911,48.2691469 52.896319,48 52.1150307,48 L52.1150307,48 Z M48,50 L51.515366,50 C51.6427997,50 51.7515688,50.0440988 51.8526146,50.1431615 C51.9543041,50.2422241 52,50.3451214 52,50.466553 L52,52.5142735 C52,52.6408181 51.9543041,52.7481892 51.8513274,52.8536429 C51.7522124,52.9527056 51.6466613,53 51.515366,53 L48,53 L48,50 L48,50 Z" id="Fill-13" fill="#F2F1EE" sketch:type="MSShapeGroup"></path>
            <path d="M67.8266871,48 C67.4815951,48 67.1855061,48.1200706 66.9708589,48.344697 C66.7617331,48.5632524 66.6554448,48.8546596 66.6554448,49.204753 L66.6554448,58.2842466 C66.6554448,58.4117372 66.6023006,58.5183167 66.4877301,58.6248962 C66.3731595,58.7287775 66.2523773,58.7807181 66.1143405,58.7807181 L62.864954,58.7807181 C62.7200153,58.7807181 62.602684,58.7334994 62.4957055,58.6350145 C62.3921779,58.5378788 62.3431748,58.4259029 62.3431748,58.2842466 L62.3431748,49.204753 C62.3431748,48.8647779 62.231365,48.5794417 62.017408,48.3527916 C61.7958589,48.1220942 61.5018405,48 61.169862,48 C60.8220092,48 60.5273006,48.1200706 60.3119632,48.344697 C60.1028374,48.5632524 60,48.8546596 60,49.204753 L60,58.2842466 C60,59.0336758 60.2836656,59.6798983 60.8434049,60.2073993 C61.402454,60.7328767 62.0898773,61 62.8822086,61 L66.1343558,61 C66.9163344,61 67.5961656,60.7315276 68.1579755,60.2013284 C68.7170245,59.6711291 69,59.0269303 69,58.2842466 L69,49.204753 C69,48.8647779 68.8902607,48.5794417 68.6735429,48.3527916 C68.4540644,48.1220942 68.160046,48 67.8266871,48" id="Fill-14" fill="#F2F1EE" sketch:type="MSShapeGroup"></path>
            <path d="M79.2677709,48 L74.3250518,48 C74.1442374,48 74,48.137609 74,48.3089456 L74,60.6937526 C74,60.8617165 74.1442374,61 74.3250518,61 L79.2677709,61 C80.2857143,61 81.1697723,60.649232 81.899931,59.958489 C82.6300897,59.2670714 83,58.4286011 83,57.4633147 L83,56.9149024 C83,56.4218037 82.8861284,55.9428705 82.6652864,55.4868721 C82.4927536,55.1347551 82.2622498,54.8075965 81.9765355,54.512142 C82.2477571,54.2578352 82.4741201,53.9428186 82.6514838,53.5738377 C82.8833678,53.0908572 83,52.5856164 83,52.0689083 L83,51.5177978 C83,50.5673516 82.6280193,49.7342777 81.8971705,49.041511 C81.1621808,48.3500934 80.2781228,48 79.2677709,48 L79.2677709,48 Z M78.71296,53 L76,53 L76,50 L78.71296,50 C79.0656,50 79.36256,50.1178228 79.61856,50.365635 C79.87648,50.6102455 80,50.8939168 80,51.228175 L80,51.7705443 C80,52.1118463 79.87648,52.3942369 79.62432,52.6369264 C79.36896,52.8821772 79.07136,53 78.71296,53 L78.71296,53 Z M76,56 L78.71296,56 C79.0656,56 79.36256,56.1223449 79.61856,56.3689465 C79.87648,56.6117247 80,56.8959218 80,57.2374681 L80,57.7746389 C80,58.1136364 79.87648,58.3959218 79.62432,58.6380629 C79.36896,58.8821155 79.07136,59 78.71296,59 L76,59 L76,56 L76,56 Z" id="Fill-15" fill="#F2F1EE" sketch:type="MSShapeGroup"></path>
            <path d="M96.6798037,48.3487443 C96.4610489,48.1207451 96.1670756,48 95.8282472,48 C95.4866585,48 95.1926852,48.1234433 94.9766907,48.3561644 C94.7634565,48.5807908 94.6544242,48.8647779 94.6544242,49.204753 L94.6544242,50.1093296 L92.4986198,52.5856164 L90.3414354,50.1093296 L90.3414354,49.204753 C90.3414354,48.8647779 90.2337832,48.5794417 90.0184788,48.3527916 C89.7969637,48.1220942 89.5029903,48 89.1703726,48 C88.8253335,48 88.52929,48.1200706 88.3153657,48.344697 C88.105582,48.5632524 88,48.8546596 88,49.204753 L88,50.7535284 C88,50.8155874 88.0200123,50.8762972 88.0572765,50.9275633 L91.326867,54.8251349 L91.326867,59.7959215 C91.326867,60.1345475 91.4331391,60.4198838 91.6463733,60.6445102 C91.865128,60.8792549 92.1591014,61 92.4986198,61 C92.8381383,61 93.1334918,60.8792549 93.3515565,60.6526048 C93.5641006,60.4300021 93.6710627,60.1419676 93.6710627,59.7959215 L93.6710627,54.8251349 L96.9420334,50.9275633 C96.9786076,50.8762972 97,50.8155874 97,50.7535284 L97,49.204753 C97,48.8580324 96.8923478,48.571347 96.6798037,48.3487443" id="Fill-16" fill="#F2F1EE" sketch:type="MSShapeGroup"></path>
        </g>
    </g>
</svg>

<?xml version="1.0" encoding="utf-8"?>
<!-- Generator: Adobe Illustrator 16.0.0, SVG Export Plug-In . SVG Version: 6.00 Build 0)  -->
<!DOCTYPE svg PUBLIC "-//W3C//DTD SVG 1.1//EN" "http://www.w3.org/Graphics/SVG/1.1/DTD/svg11.dtd">
<svg version="1.1" id="Layer_1" xmlns:sketch="http://www.bohemiancoding.com/sketch/ns"
	 xmlns="http://www.w3.org/2000/svg" xmlns:xlink="http://www.w3.org/1999/xlink" x="0px" y="0px" width="141px" height="111px"
	 viewBox="0 0 141 111" enable-background="new 0 0 141 111" xml:space="preserve">
<title>ruby-shapre</title>
<description>Created with Sketch (http://www.bohemiancoding.com/sketch)</description>
<g id="Page-1" sketch:type="MSPage">
	<g id="BR-logo" transform="translate(0.000000, -1.000000)" sketch:type="MSLayerGroup">
		<path id="Fill-1" sketch:type="MSShapeGroup" fill="#6E1835" d="M141,31.476L120.137,1.667H20.862L0,31.476L70.463,111h0.074
			L141,31.476"/>
		<path id="Fill-2" sketch:type="MSShapeGroup" fill="#8D1E40" d="M141,31L120.137,1H20.862L0,31H141"/>
		<path id="Fill-3" sketch:type="MSShapeGroup" fill="#AC224E" d="M71,1L39.697,31L21,1"/>
		<path id="Fill-4" sketch:type="MSShapeGroup" fill="#AC224E" d="M70.137,1l31.303,30l18.697-30"/>
		<path id="Fill-5" sketch:type="MSShapeGroup" fill="#A42249" d="M39.574,31l30.963,80h0.075l30.962-80"/>
		<path id="Fill-6" sketch:type="MSShapeGroup" fill="#F2F1EE" d="M30.267,24h-4.942C25.146,24,25,24.138,25,24.308v12.385
			C25,36.861,25.146,37,25.325,37h4.942c1.017,0,1.902-0.351,2.633-1.042c0.729-0.69,1.1-1.531,1.1-2.495v-0.552
			c0-0.488-0.115-0.969-0.338-1.425c-0.171-0.352-0.401-0.679-0.685-0.974c0.271-0.254,0.497-0.57,0.673-0.94
			c0.23-0.483,0.35-0.989,0.35-1.502v-0.552c0-0.951-0.373-1.785-1.105-2.477C32.16,24.351,31.276,24,30.267,24L30.267,24z
			 M29.711,29H27v-3h2.711c0.354,0,0.65,0.122,0.907,0.369C30.875,26.613,31,26.897,31,27.23v0.541c0,0.341-0.124,0.624-0.376,0.866
			C30.37,28.881,30.071,29,29.711,29L29.711,29z M27,32h2.711c0.354,0,0.65,0.119,0.907,0.366C30.875,32.609,31,32.895,31,33.234
			v0.54c0,0.339-0.124,0.624-0.376,0.864C30.37,34.881,30.071,35,29.711,35H27V32L27,32z"/>
		<path id="Fill-7" sketch:type="MSShapeGroup" fill="#F2F1EE" d="M47.729,26.221c0.359,0,0.66-0.102,0.898-0.308
			C48.87,25.705,49,25.427,49,25.111c0-0.321-0.128-0.599-0.369-0.808C48.397,24.103,48.093,24,47.729,24h-7.403
			C40.146,24,40,24.138,40,24.308v12.385C40,36.861,40.146,37,40.325,37h7.403c0.356,0,0.658-0.1,0.895-0.302
			C48.87,36.493,49,36.211,49,35.89s-0.128-0.6-0.369-0.807c-0.234-0.203-0.539-0.304-0.903-0.304h-5.385v-3.172h2.728
			c0.358,0,0.658-0.103,0.891-0.306c0.235-0.207,0.359-0.484,0.359-0.805c0-0.32-0.125-0.598-0.359-0.806
			c-0.233-0.202-0.533-0.306-0.891-0.306h-2.728v-3.163H47.729"/>
		<path id="Fill-8" sketch:type="MSShapeGroup" fill="#F2F1EE" d="M62.73,34.779h-5.388v-9.575c0-0.337-0.108-0.624-0.324-0.85
			C56.797,24.122,56.504,24,56.171,24c-0.345,0-0.642,0.118-0.855,0.343C55.104,24.563,55,24.853,55,25.204v11.488
			C55,36.861,55.146,37,55.324,37h7.406c0.355,0,0.657-0.1,0.894-0.302C63.87,36.493,64,36.211,64,35.89s-0.127-0.6-0.368-0.807
			C63.397,34.88,63.095,34.779,62.73,34.779"/>
		<path id="Fill-9" sketch:type="MSShapeGroup" fill="#F2F1EE" d="M76.73,24h-7.406C69.144,24,69,24.138,69,24.308V35.49
			c0,0.601,0.083,0.904,0.317,1.155C69.536,36.878,69.831,37,70.17,37c0.34,0,0.635-0.121,0.854-0.347
			c0.212-0.226,0.32-0.511,0.32-0.857v-5.831h3.731c0.352,0,0.648-0.104,0.883-0.306c0.24-0.207,0.37-0.486,0.37-0.807
			c0-0.32-0.126-0.597-0.362-0.803c-0.232-0.204-0.532-0.307-0.891-0.307h-3.731v-1.521h5.386c0.359,0,0.662-0.102,0.898-0.308
			C77.873,25.705,78,25.427,78,25.111c0-0.321-0.125-0.599-0.365-0.808C77.398,24.103,77.094,24,76.73,24"/>
		<path id="Fill-10" sketch:type="MSShapeGroup" fill="#F2F1EE" d="M88.931,35.514l-3.205-10.39
			c-0.115-0.407-0.263-0.687-0.447-0.852C85.08,24.092,84.816,24,84.5,24c-0.325,0-0.593,0.096-0.797,0.285
			c-0.187,0.169-0.333,0.445-0.45,0.841l-3.202,10.369c-0.017,0.061-0.029,0.12-0.038,0.178S80,35.815,80,35.928
			c0,0.29,0.111,0.542,0.336,0.754C80.561,36.892,80.831,37,81.137,37c0.295,0,0.543-0.078,0.746-0.23
			c0.19-0.148,0.336-0.368,0.438-0.662l0.572-1.803h3.222l0.563,1.809c0.076,0.258,0.22,0.472,0.428,0.635
			C87.32,36.917,87.566,37,87.844,37c0.311,0,0.586-0.104,0.812-0.317C88.881,36.473,89,36.207,89,35.907
			c0-0.058-0.006-0.125-0.02-0.197C88.969,35.637,88.951,35.566,88.931,35.514L88.931,35.514z M86,32h-2l1.007-3L86,32L86,32z"/>
		<path id="Fill-11" sketch:type="MSShapeGroup" fill="#F2F1EE" d="M100.545,26.28c0.066,0.051,0.074,0.083,0.078,0.096
			c0.101,0.466,0.234,0.76,0.418,0.929c0.193,0.179,0.458,0.27,0.787,0.27c0.339,0,0.631-0.12,0.852-0.348
			c0.213-0.224,0.32-0.511,0.32-0.858c0-0.618-0.263-1.175-0.783-1.651C101.7,24.242,101.086,24,100.391,24h-4.176
			c-0.604,0-1.131,0.207-1.563,0.618C94.219,25.029,94,25.525,94,26.101c0,0.25,0.051,0.497,0.15,0.737
			c0.096,0.229,0.243,0.47,0.426,0.702l5.971,7.239h-3.945c-0.02,0-0.064,0-0.144-0.058c-0.047-0.035-0.075-0.07-0.081-0.101
			c-0.109-0.463-0.244-0.758-0.426-0.925c-0.193-0.178-0.457-0.268-0.779-0.268c-0.339,0-0.631,0.12-0.852,0.347
			C94.109,33.996,94,34.285,94,34.631c0,0.611,0.264,1.167,0.783,1.647C95.301,36.756,95.91,37,96.602,37h4.174
			c0.611,0,1.141-0.207,1.572-0.617C102.781,35.974,103,35.474,103,34.9c0-0.25-0.05-0.497-0.15-0.738
			c-0.095-0.23-0.242-0.47-0.426-0.704l-5.969-7.237h3.936C100.423,26.221,100.471,26.227,100.545,26.28"/>
		<path id="Fill-12" sketch:type="MSShapeGroup" fill="#F2F1EE" d="M116.675,24h-8.349c-0.18,0-0.326,0.138-0.326,0.308v2.062
			c0,0.338,0.109,0.625,0.319,0.85c0.217,0.232,0.513,0.355,0.854,0.355c0.339,0,0.632-0.12,0.85-0.348
			c0.213-0.224,0.319-0.511,0.319-0.858v-0.149h0.984v9.575c0,0.338,0.108,0.624,0.319,0.849C111.865,36.878,112.16,37,112.5,37
			s0.635-0.121,0.854-0.347c0.211-0.226,0.32-0.511,0.32-0.857v-9.575h0.982v0.149c0,0.338,0.107,0.625,0.318,0.85
			c0.22,0.232,0.514,0.355,0.853,0.355c0.34,0,0.635-0.12,0.853-0.348c0.214-0.224,0.32-0.511,0.32-0.858v-2.062
			C117,24.138,116.856,24,116.675,24"/>
		<path id="Fill-13" sketch:type="MSShapeGroup" fill="#F2F1EE" d="M52.115,48h-5.791C46.144,48,46,48.138,46,48.309v9.746
			c0,2.08,0.107,2.365,0.318,2.59C46.535,60.879,46.832,61,47.171,61c0.341,0,0.634-0.121,0.852-0.348
			c0.213-0.223,0.322-0.51,0.322-0.856v-4.184h0.689l3.724,4.756c0.112,0.188,0.263,0.34,0.447,0.448
			c0.19,0.109,0.4,0.166,0.625,0.166c0.323,0,0.602-0.106,0.831-0.324C54.885,60.443,55,60.18,55,59.873
			c0-0.096-0.018-0.197-0.056-0.305c-0.033-0.096-0.086-0.198-0.148-0.295l-3.054-3.662h0.373c0.793,0,1.482-0.271,2.043-0.804
			C54.717,54.272,55,53.624,55,52.878v-2.162c0-0.741-0.287-1.386-0.854-1.917C53.579,48.269,52.896,48,52.115,48L52.115,48z M48,50
			h3.515c0.127,0,0.236,0.044,0.337,0.143C51.954,50.242,52,50.345,52,50.467v2.047c0,0.126-0.046,0.234-0.148,0.339
			C51.752,52.953,51.646,53,51.515,53H48V50L48,50z"/>
		<path id="Fill-14" sketch:type="MSShapeGroup" fill="#F2F1EE" d="M67.827,48c-0.345,0-0.641,0.12-0.856,0.345
			c-0.209,0.219-0.315,0.51-0.315,0.86v9.08c0,0.128-0.053,0.234-0.167,0.341c-0.115,0.104-0.235,0.156-0.374,0.156h-3.25
			c-0.145,0-0.262-0.048-0.369-0.146c-0.104-0.097-0.152-0.209-0.152-0.351v-9.08c0-0.34-0.112-0.625-0.326-0.852
			C61.796,48.122,61.502,48,61.17,48c-0.348,0-0.643,0.12-0.858,0.345C60.103,48.563,60,48.854,60,49.205v9.08
			c0,0.749,0.284,1.396,0.843,1.923C61.402,60.732,62.09,61,62.882,61h3.252c0.782,0,1.462-0.269,2.024-0.799
			C68.717,59.671,69,59.027,69,58.284v-9.08c0-0.34-0.11-0.625-0.327-0.852C68.454,48.122,68.16,48,67.827,48"/>
		<path id="Fill-15" sketch:type="MSShapeGroup" fill="#F2F1EE" d="M79.268,48h-4.942C74.145,48,74,48.138,74,48.309v12.384
			C74,60.861,74.145,61,74.325,61h4.942c1.018,0,1.902-0.351,2.633-1.041c0.729-0.691,1.1-1.53,1.1-2.496v-0.548
			c0-0.493-0.113-0.972-0.334-1.428c-0.174-0.352-0.404-0.679-0.689-0.975c0.271-0.254,0.498-0.569,0.675-0.938
			C82.883,53.091,83,52.585,83,52.069v-0.551c0-0.95-0.372-1.783-1.104-2.476C81.162,48.35,80.278,48,79.268,48L79.268,48z
			 M78.713,53H76v-3h2.713c0.353,0,0.65,0.118,0.906,0.366C79.877,50.61,80,50.894,80,51.228v0.542c0,0.341-0.123,0.624-0.375,0.866
			C79.369,52.882,79.071,53,78.713,53L78.713,53z M76,56h2.713c0.353,0,0.65,0.122,0.906,0.369C79.877,56.612,80,56.896,80,57.237
			v0.537c0,0.339-0.123,0.622-0.375,0.864C79.369,58.883,79.071,59,78.713,59H76V56L76,56z"/>
		<path id="Fill-16" sketch:type="MSShapeGroup" fill="#F2F1EE" d="M96.68,48.349C96.461,48.121,96.167,48,95.828,48
			c-0.342,0-0.635,0.124-0.852,0.356c-0.213,0.225-0.322,0.509-0.322,0.849v0.905l-2.156,2.476l-2.156-2.476v-0.905
			c0-0.34-0.107-0.625-0.323-0.852C89.797,48.122,89.503,48,89.17,48c-0.345,0-0.641,0.12-0.854,0.345
			c-0.21,0.219-0.315,0.51-0.315,0.86v1.549c0,0.062,0.02,0.123,0.057,0.174l3.27,3.897v4.971c0,0.339,0.107,0.624,0.32,0.849
			C91.865,60.879,92.159,61,92.498,61c0.34,0,0.635-0.121,0.854-0.348c0.213-0.223,0.319-0.51,0.319-0.856v-4.971l3.271-3.897
			C96.979,50.876,97,50.815,97,50.753v-1.549C97,48.858,96.893,48.571,96.68,48.349"/>
	</g>
</g>
</svg>
